icons/reek.svg

<!--
  - The MIT License (MIT)
  -
  - Copyright (c) 2015-2024 Elior "Mallowigi" Boukhobza
  -
  - Permission is hereby granted, free of charge, to any person obtaining a copy
  - of this software and associated documentation files (the "Software"), to deal
  - in the Software without restriction, including without limitation the rights
  - to use, copy, modify, merge, publish, distribute, sublicense, and/or sell
  - copies of the Software, and to permit persons to whom the Software is
  - furnished to do so, subject to the following conditions:
  -
  - The above copyright notice and this permission notice shall be included in all
  - copies or substantial portions of the Software.
  -
  - THE SOFTWARE IS PROVIDED "AS IS", WITHOUT WARRANTY OF ANY KIND, EXPRESS OR
  - IMPLIED, INCLUDING BUT NOT LIMITED TO THE WARRANTIES OF MERCHANTABILITY,
  - FITNESS FOR A PARTICULAR PURPOSE AND NONINFRINGEMENT. IN NO EVENT SHALL THE
  - AUTHORS OR COPYRIGHT HOLDERS BE LIABLE FOR ANY CLAIM, DAMAGES OR OTHER
  - LIABILITY, WHETHER IN AN ACTION OF CONTRACT, TORT OR OTHERWISE, ARISING FROM,
  - OUT OF OR IN CONNECTION WITH THE SOFTWARE OR THE USE OR OTHER DEALINGS IN THE
  - SOFTWARE.
  -
  -->

<svg  version="1.1" xmlns="http://www.w3.org/2000/svg" viewBox="0 0 512 512" width="16px" height="16px">
  <path fill="#d41217" data-iconColor="Reek"
        d="M256.0636597,461.3601074c0,0-63.7040405-64.519165-63.6657104-64.5571289L388.361084,327.534668C388.3746338,327.5480957,256.0636597,461.3601074,256.0636597,461.3601074z M287.527771,322.309082l-23.0469971-65.321106c-2.8013306-8.0218353-11.5871582-12.0964203-19.4816895-9.2951508L96.8667603,300.458313l77.6246338,78.2856445l103.7412109-36.953186C286.2544556,338.9894409,290.3291016,330.2035522,287.527771,322.309082z M439.1663818,112.0897903l-84.4318542-35.1079788l4.9690857,58.4621124c1.1231079,13.7578125-8.9846191,25.6905518-22.6020508,26.9539795l-112.0274658,9.8269653c-13.7577515,1.1231079-25.6905518-8.9846802-26.9539795-22.6020508l-7.3788452-86.5767899L72.9609375,112.0897903L0,202.6225128l77.2897339,78.0920258l336.1556396-117.9468231c11.7145386-4.2019043,24.7023315,2.0373535,28.7769775,13.7518311l25.2663574,71.1014404L512,202.6225128L439.1663818,112.0897903z M306.7739868,59.1398849c0-6.5190468-7.1057129-10.6155701-12.7595825-7.3560486s-5.6538696,11.4525719,0,14.7120972C299.6682739,69.755455,306.7739868,65.6589279,306.7739868,59.1398849z M242.4644012,70.2519302c-5.6538696-3.2595215-5.6538696-11.4525719,0-14.7120934c5.6538849-3.2595253,12.7595978,0.8370018,12.7595978,7.3560486S248.1182861,73.5114517,242.4644012,70.2519302z M325.8312073,142.4043274c-5.6538696-3.2595215-5.6538696-11.4525757,0-14.7120972s12.7595825,0.8370056,12.7595825,7.3560486S331.4850769,145.6638489,325.8312073,142.4043274z M274.281189,146.1603241c-5.6538696-3.2595215-5.6538696-11.4525604,0-14.7120972c5.6539001-3.2595215,12.759613,0.8370056,12.759613,7.3560486C287.040802,145.3233337,279.9350891,149.4198456,274.281189,146.1603241z M222.7812042,149.6603241c-5.6538849-3.2595215-5.6538849-11.4525604,0-14.7120972c5.6538696-3.2595215,12.7595825,0.8370056,12.7595825,7.3560486C235.5407867,148.8233337,228.4350739,152.9198456,222.7812042,149.6603241z M321.2510376,90.4959335c-5.6538696-3.2595215-5.6538696-11.4525757,0-14.7120972c5.6539001-3.2595215,12.759613,0.836998,12.759613,7.3560486C334.0106506,89.6589279,326.9049377,93.755455,321.2510376,90.4959335z M269.7010498,94.2519302c-5.6538696-3.2595215-5.6538696-11.4525681,0-14.7120972c5.6538696-3.2595215,12.7595825,0.8370056,12.7595825,7.3560486C282.4606323,93.4149323,275.3549194,97.5114517,269.7010498,94.2519302z M218.2010498,97.7519302c-5.6538696-3.2595215-5.6538849-11.4525681,0-14.7120972c5.6538696-3.2595215,12.7595978,0.8370056,12.7595978,7.3560486C230.9606476,96.9149323,223.8549194,101.0114517,218.2010498,97.7519302z M298.0144043,117.9959335c-5.6538696-3.2595215-5.6538696-11.4525757,0-14.7120972s12.7595825,0.836998,12.7595825,7.3560486C310.7739868,117.1589279,303.6682739,121.255455,298.0144043,117.9959335z M246.4644012,121.7519302c-5.6538696-3.2595215-5.6538696-11.4525681,0-14.7120972c5.6538849-3.2595215,12.7595978,0.8370056,12.7595978,7.3560486C259.223999,120.9149323,252.1182861,125.0114517,246.4644012,121.7519302z M285.6732788,246.2866364c-5.6538696-3.2595215-5.6538696-11.4525604,0-14.7120972c5.6538696-3.2595215,12.7595825,0.8370056,12.7595825,7.3560486C298.4328613,245.449646,291.3271484,249.5461578,285.6732788,246.2866364z M340.954071,226.9770508c-5.6539001-3.2595215-5.6539001-11.4525757,0-14.7120972c5.6538696-3.2595215,12.7595825,0.8370056,12.7595825,7.3560486S346.6079407,230.2365723,340.954071,226.9770508z M395.7840271,207.3693848c-5.6538696-3.2595215-5.6538696-11.4525604,0-14.7120819c5.6538696-3.2595367,12.7595825,0.8369904,12.7595825,7.3560333C408.5436096,206.5323944,401.4378967,210.6289062,395.7840271,207.3693848z M322.731842,264.269043c-5.6538696-3.2595215-5.6538696-11.4525757,0-14.7120972s12.7595825,0.8370056,12.7595825,7.3560486S328.3857117,267.5285645,322.731842,264.269043z M377.7174988,245.0064545c-5.6538696-3.2595215-5.6538696-11.4525757,0-14.7120972s12.7595825,0.8370056,12.7595825,7.3560486S383.3713684,248.265976,377.7174988,245.0064545z M433.1170959,225.5859375c-5.6538696-3.2595215-5.6539001-11.4525757,0-14.7120972c5.6538696-3.2595215,12.7595825,0.8370056,12.7595825,7.3560486C445.8766785,224.7489471,438.7709656,228.845459,433.1170959,225.5859375z M305.231842,301.269043c-5.6538696-3.2595215-5.6538696-11.4525757,0-14.7120972s12.7595825,0.8370056,12.7595825,7.3560486S310.8857117,304.5285645,305.231842,301.269043z M360.2174988,282.0064392c-5.6538696-3.2595215-5.6538696-11.4525757,0-14.7120972s12.7595825,0.8370056,12.7595825,7.3560486S365.8713684,285.2659607,360.2174988,282.0064392z M415.6170959,262.5859375c-5.6538696-3.2595215-5.6539001-11.4525757,0-14.7120972c5.6538696-3.2595215,12.7595825,0.8370056,12.7595825,7.3560486S421.2709656,265.845459,415.6170959,262.5859375z M342.231842,319.269043c-5.6538696-3.2595215-5.6538696-11.4525757,0-14.7120972s12.7595825,0.8370056,12.7595825,7.3560486S347.8857117,322.5285645,342.231842,319.269043z M397.2174988,300.0064392c-5.6538696-3.2595215-5.6538696-11.4525757,0-14.7120972s12.7595825,0.8370056,12.7595825,7.3560486S402.8713684,303.2659607,397.2174988,300.0064392z"/>
</svg>

<svg xmlns="http://www.w3.org/2000/svg" viewBox="0 0 512 512"><path fill="#d41217" d="M256.064 461.36s-63.704-64.52-63.666-64.557l195.963-69.268c.014.013-132.297 133.825-132.297 133.825m31.464-139.05-23.047-65.322c-2.802-8.022-11.587-12.096-19.482-9.295L96.867 300.458l77.624 78.286 103.742-36.953c8.021-2.802 12.096-11.587 9.295-19.482m151.638-210.22-84.431-35.108 4.969 58.462c1.123 13.758-8.985 25.69-22.602 26.954l-112.028 9.827c-13.758 1.123-25.69-8.985-26.954-22.602l-7.379-86.577-117.78 49.044L0 202.623l77.29 78.092 336.155-117.947c11.715-4.202 24.703 2.037 28.777 13.752l25.267 71.101L512 202.623zM306.774 59.14c0-6.52-7.106-10.616-12.76-7.356s-5.653 11.452 0 14.712c5.654 3.26 12.76-.837 12.76-7.356m-64.31 11.112c-5.653-3.26-5.653-11.453 0-14.712 5.654-3.26 12.76.837 12.76 7.356s-7.106 10.615-12.76 7.356m83.367 72.152c-5.654-3.26-5.654-11.452 0-14.712s12.76.837 12.76 7.356-7.106 10.616-12.76 7.356m-51.55 3.756c-5.654-3.26-5.654-11.452 0-14.712s12.76.837 12.76 7.356-7.106 10.616-12.76 7.356m-51.5 3.5c-5.654-3.26-5.654-11.452 0-14.712s12.76.837 12.76 7.356-7.106 10.616-12.76 7.356m98.47-59.164c-5.654-3.26-5.654-11.453 0-14.712s12.76.837 12.76 7.356-7.106 10.615-12.76 7.356m-51.55 3.756c-5.654-3.26-5.654-11.453 0-14.712s12.76.837 12.76 7.356-7.106 10.615-12.76 7.356m-51.5 3.5c-5.654-3.26-5.654-11.453 0-14.712s12.76.837 12.76 7.356-7.106 10.615-12.76 7.356m79.813 20.244c-5.653-3.26-5.653-11.453 0-14.712s12.76.837 12.76 7.356-7.106 10.615-12.76 7.356m-51.55 3.756c-5.653-3.26-5.653-11.453 0-14.712 5.654-3.26 12.76.837 12.76 7.356s-7.106 10.615-12.76 7.356m39.21 124.535c-5.655-3.26-5.655-11.453 0-14.712 5.653-3.26 12.759.837 12.759 7.356s-7.106 10.615-12.76 7.356m55.28-19.31c-5.654-3.26-5.654-11.453 0-14.712s12.76.837 12.76 7.356-7.106 10.616-12.76 7.356m54.83-19.608c-5.654-3.26-5.654-11.452 0-14.712s12.76.837 12.76 7.356-7.106 10.616-12.76 7.356m-73.052 56.9c-5.654-3.26-5.654-11.453 0-14.712s12.76.837 12.76 7.356-7.106 10.616-12.76 7.356m54.985-19.263c-5.653-3.26-5.653-11.452 0-14.712s12.76.837 12.76 7.356-7.106 10.616-12.76 7.356m55.4-19.42c-5.654-3.26-5.654-11.453 0-14.712s12.76.837 12.76 7.356-7.106 10.615-12.76 7.356m-127.885 75.683c-5.654-3.26-5.654-11.453 0-14.712s12.76.837 12.76 7.356-7.106 10.616-12.76 7.356m54.985-19.263c-5.653-3.26-5.653-11.452 0-14.712s12.76.837 12.76 7.356-7.106 10.616-12.76 7.356m55.4-19.42c-5.654-3.26-5.654-11.453 0-14.712s12.76.837 12.76 7.356-7.106 10.615-12.76 7.356m-73.385 56.683c-5.654-3.26-5.654-11.453 0-14.712s12.76.837 12.76 7.356-7.106 10.616-12.76 7.356m54.985-19.263c-5.653-3.26-5.653-11.452 0-14.712s12.76.837 12.76 7.356-7.106 10.616-12.76 7.356" data-iconColor="Reek"/></svg>
